X:847
T:Sir Robert Peel
R:Reel
B:The Athole Collection
M:C|
L:1/8
K:B_
F|~B2 FE DB,FD|CccB AFcA|~B2 FE DB,FD|CcAF ~B2 B:|
e|dBfB dBfB|GccB AFFe|dBfB dBfB|GcAF ~B2 B||

